X:1
T:Old Mother Flanagan
L:1/8
M:none
I:linebreak $
K:G
V:1 treble nm="Voice" snm="Voice"
V:1
"G" g2 g2 e2 d2 | B2 B2 AGED | G2 G2 DEGA | BABc d2 ef |$ g2 g2 e2 d2 | B2 B2 AGED | G2 G2 DEGA | %7
 BGAF G4 ::$ G3 E DEGA | B2 B2 AGED | G3 E DEGA | BABc d2 AB |$ c2 ec B2 d2 | B2 B2 AGED | %14
 G2 G2 DEGA | BGAF G4 :| %16
